X: 28
T: St. Croix Jig
C: Keith Murphy
R: jig
Z: 2015 John Chambers <jc:trillian.mit.edu>
M: 6/8
L: 1/8
K: Am
|:\
"Am"A2A GAA | AGA DEG | A2A GAA | "C"cde "G"dcG | "Am"A2A GAA | AGA DEG |
"C"EDC "D"D2D | "C"EDC "D"DEG :: "E"B2B "Am"cBA | "E7"B3 E3 | DEE DEE | FED E^GA |
"E"B2B "Am"cBA | "E7"B3 E3 |[1 "E7"E^GA Bde | "Dm"faf "Am"edc :|[2 "Dm"Bde "E7"fa^g | fed cdB |]\
["fine" "Am"A6 |]

%%sep 1 1 500

